X:84
T:McIntyre
M:2/4
L:1/8
K:D
A|d2 ef|A3 A|BG dB|A3 a|a3 a|ba fd|f e3|e2 zA|d2 ef|A3 A|
BG dB|A3 a|a2 fd|e2 Ae|d4-|d2 z::f|g>f ga|bb af|ee de|f2 zf|
g>f ga|bb af|e4-|e2 zA|d2 ef|A3 A|BG dB|A3 a|a2 fd|e A2 e|d4-|d2z:|
%%%newpage
